dist/svg/terminal.svg

<!-- Generated by Trend Micro Style Portal -->
<svg version="1.1" xmlns="http://www.w3.org/2000/svg" width="16" height="16" viewBox="0 0 16 16">
  <title>terminal</title>
  <path fill="rgb(34,34,34)" d="M15 1h-14c-0.6 0-1 0.4-1 1v12c0 0.6 0.4 1 1 1h14c0.6 0 1-0.4 1-1v-12c0-0.6-0.4-1-1-1zM15 14h-14v-11h14v11zM7 12h5v1h-5v-1zM2 12.3l3.6-3.6-3.6-3.7 0.7-0.7 4.3 4.3-4.3 4.4-0.7-0.7z"></path>
</svg>

<svg width="16" height="16" viewBox="0 0 16 16" fill="rgb(34, 34, 34)" xmlns="http://www.w3.org/2000/svg"><title>terminal</title><path d="M15 1H1C0.4 1 0 1.4 0 2V14C0 14.6 0.4 15 1 15H15C15.6 15 16 14.6 16 14V2C16 1.4 15.6 1 15 1ZM15 14H1V3H15V14ZM7 12H12V13H7V12ZM2 12.3L5.6 8.7L2 5L2.7 4.3L7 8.6L2.7 13L2 12.3Z" fill="rgb(34, 34, 34)" fill-opacity="1.00"/></svg>
